X:142
T:My Mother (harmony for pg 104)
M:6/8
L:1/8
C:harmony by B. McOwen
K:D
||"A7"F2 E|"D"D A,2 D2 F|"D7"A2 B =c2 A|"G"B2 =c B2 G|"D"G F2 F2 E|"D"F A,2 A,2 A,|\
"Bm"D2 D F2 D|"E7"B,6|"A7"C3 F2 E|
"D"D A,2 D2 F|"D7"A2 B =c2 d|"G"B2 =c B G2|"D"G F2 F2 E|"G"[G,3D3] G3|"A7"F D2 A,3|\
"D"A,3 "G"G,3|"D"A,3||
||"A7"F2 G|"D"A F2 d2 A|"D7"F A,2 A,2 =C|"G"[G,3D3] G3|"D"G F2 A2 ^c|"D"d2 c B2 D|\
"Bm"F2 D C2 B,|"E7"^G,6|"A7"A,3 F2 E|
"D"D A,2 D2 F|"D7"A2 B2 =c d|"G"B2 =c B2 G|"D"G F2 F2 E|"G"[G,3D3] G3|"A"F D2 A,3|\
"D"A,3 "G"G,3|"D"A,3||
